.icons/Gruvbox-Plus-Dark/apps/16/fontbase.svg

<svg width="16" height="16" version="1.1" xmlns="http://www.w3.org/2000/svg">
  <defs>
    <style type="text/css" id="current-color-scheme">.ColorScheme-Text { color:#ebdbb2; } .ColorScheme-Highlight { color:#458588; }</style>
  </defs>
 <path class="ColorScheme-Text" fill="currentColor" d="M 7.453776 7.852301 L 8.058417 7.267164 L 12.82425 11.991618 C 13.173993 12.341751 13.649644 12.533156 14.143948 12.533156 C 14.638252 12.528488 15.113902 12.332414 15.458982 11.977614 C 15.808725 11.62748 16.004581 11.151301 15.999919 10.656447 C 15.995255 10.161592 15.799398 9.685413 15.444992 9.339949 L 9.742955 3.685827 C 8.828675 2.779229 7.335394 2.770306 6.410368 3.665914 L 0.569249 9.321274 C 0.21018 9.666738 0.00966 10.13825 0.000334 10.633104 C -0.008993 11.127959 0.177537 11.608807 0.522617 11.963608 C 0.867697 12.318409 1.338685 12.523819 1.832988 12.533156 C 2.327292 12.537825 2.807605 12.351088 3.162012 12.005624 L 4.772176 10.447398 L 6.748045 12.444456 C 7.093125 12.799257 7.568776 12.995331 8.063079 13 C 8.557383 13 9.033035 12.808594 9.382777 12.458462 C 9.737183 12.108329 9.93304 11.636817 9.937703 11.141963 C 9.942366 10.64711 9.746509 10.170929 9.396767 9.816128 L 7.453776 7.852301 Z"/>
</svg>

<svg width="16" height="16" version="1.1" xmlns="http://www.w3.org/2000/svg">
  <defs>
    <style id="current-color-scheme" type="text/css">.ColorScheme-Text { color:#ebdbb2; } .ColorScheme-Highlight { color:#458588; }</style>
  </defs>
  <path class="ColorScheme-Text" d="m7.454 7.852 0.6046-0.5851 4.766 4.724c0.3497 0.3501 0.8254 0.5415 1.32 0.5415 0.4943-0.004668 0.97-0.2007 1.315-0.5555 0.3497-0.3501 0.5456-0.8263 0.5409-1.321-0.004664-0.4949-0.2005-0.971-0.5549-1.316l-5.702-5.654c-0.9143-0.9066-2.408-0.9155-3.333-0.01991l-5.841 5.655c-0.3591 0.3455-0.5596 0.817-0.5689 1.312-0.009327 0.4949 0.1772 0.9757 0.5223 1.331s0.8161 0.5602 1.31 0.5695c0.4943 0.004669 0.9746-0.1821 1.329-0.5275l1.61-1.558 1.976 1.997c0.3451 0.3548 0.8207 0.5509 1.315 0.5555 0.4943 0 0.97-0.1914 1.32-0.5415 0.3544-0.3501 0.5503-0.8216 0.5549-1.316 0.004663-0.4949-0.1912-0.971-0.5409-1.326l-1.943-1.964z" fill="currentColor"/>
</svg>
